packages/ui/src/components/Icon/Icon.assets/pause.svg

<svg width="12" height="17" viewBox="0 0 12 17" fill="none" xmlns="http://www.w3.org/2000/svg">
<path fill-rule="evenodd" clip-rule="evenodd" d="M0.410209 0.624011C0.285645 0.868481 0.285645 1.18851 0.285645 1.82857V14.412C0.285645 15.0521 0.285645 15.3721 0.410209 15.6166C0.519778 15.8316 0.694613 16.0065 0.909655 16.116C1.15413 16.2406 1.47416 16.2406 2.11422 16.2406H2.6676C3.30766 16.2406 3.62769 16.2406 3.87216 16.116C4.0872 16.0065 4.26204 15.8316 4.37161 15.6166C4.49617 15.3721 4.49617 15.0521 4.49617 14.412V1.82857C4.49617 1.18851 4.49617 0.868481 4.37161 0.624011C4.26204 0.408968 4.0872 0.234134 3.87216 0.124564C3.62769 0 3.30766 0 2.6676 0H2.11422C1.47416 0 1.15413 0 0.909655 0.124564C0.694613 0.234134 0.519778 0.408968 0.410209 0.624011ZM7.62819 0.624011C7.50363 0.868481 7.50363 1.18851 7.50363 1.82857V14.412C7.50363 15.0521 7.50363 15.3721 7.62819 15.6166C7.73776 15.8316 7.9126 16.0065 8.12764 16.116C8.37211 16.2406 8.69214 16.2406 9.3322 16.2406H9.88558C10.5256 16.2406 10.8457 16.2406 11.0901 16.116C11.3052 16.0065 11.48 15.8316 11.5896 15.6166C11.7142 15.3721 11.7142 15.0521 11.7142 14.412V14.412V1.82857C11.7142 1.18851 11.7142 0.868481 11.5896 0.624011C11.48 0.408968 11.3052 0.234134 11.0901 0.124564C10.8457 0 10.5256 0 9.88558 0H9.3322C8.69214 0 8.37211 0 8.12764 0.124564C7.9126 0.234134 7.73776 0.408968 7.62819 0.624011Z" fill="white"/>
</svg>

<svg width="12" height="17" fill="none" xmlns="http://www.w3.org/2000/svg"><path fill-rule="evenodd" clip-rule="evenodd" d="M.41.624C.286.868.286 1.189.286 1.829v12.583c0 .64 0 .96.124 1.205.11.215.285.39.5.499.244.125.564.125 1.204.125h.554c.64 0 .96 0 1.204-.125.215-.11.39-.284.5-.5.124-.244.124-.564.124-1.204V1.829c0-.64 0-.96-.124-1.205a1.143 1.143 0 00-.5-.5C3.628 0 3.308 0 2.668 0h-.554c-.64 0-.96 0-1.204.125-.215.11-.39.284-.5.499zm7.218 0c-.124.244-.124.565-.124 1.205v12.583c0 .64 0 .96.124 1.205.11.215.285.39.5.499.244.125.564.125 1.204.125h.554c.64 0 .96 0 1.204-.125.215-.11.39-.284.5-.5.124-.244.124-.564.124-1.204V1.829c0-.64 0-.96-.124-1.205a1.143 1.143 0 00-.5-.5C10.846 0 10.526 0 9.886 0h-.554c-.64 0-.96 0-1.204.125-.215.11-.39.284-.5.499z" fill="#fff"/></svg>
